X:82
T:All Hands Upon Deck
Z:Jack Campin, http://www.campin.me.uk/
S:Northumbrian Minstrelsy
M:C
L:1/8
K:D
 d2fg a2fd| cecA Aeef|defg ^gafd|edcB Add2:|
TF2ED DddF|TG2FE EeeG|GFED  Dddf|ebag fdd2 |
TF2ED DddF|TG2FE Eeeg|fagf  gbag|faea fdd2:|

